assets/images/content/thirdStage.svg

<svg width="149" height="143" viewBox="0 0 149 143" fill="none" xmlns="http://www.w3.org/2000/svg">
<path d="M42.223 72.9876C47.3038 72.9876 51.4226 68.8427 51.4226 63.7298C51.4226 58.6168 47.3038 54.4719 42.223 54.4719C37.1422 54.4719 33.0234 58.6168 33.0234 63.7298C33.0234 68.8427 37.1422 72.9876 42.223 72.9876Z" stroke="white" stroke-width="2" stroke-miterlimit="10" stroke-linecap="round" stroke-linejoin="round"/>
<path d="M81.3053 72.9876C86.4212 72.9876 90.5685 68.814 90.5685 63.6657C90.5685 58.5173 86.4212 54.3438 81.3053 54.3438C76.1893 54.3438 72.042 58.5173 72.042 63.6657C72.042 68.814 76.1893 72.9876 81.3053 72.9876Z" stroke="white" stroke-width="2" stroke-miterlimit="10" stroke-linecap="round" stroke-linejoin="round"/>
<path d="M72.0415 63.7937H51.4141" stroke="white" stroke-width="2" stroke-miterlimit="10" stroke-linecap="round" stroke-linejoin="round"/>
<path d="M90.8707 63.7936L98.0091 60.8545L97.1894 47.192C96.9268 41.3618 78.5515 40.5609 78.5515 40.5609L71.5006 30.0858C68.6436 26.3939 63.8528 26.522 63.8528 26.522H35.5537L24.0781 39.5919L25.3753 63.7936H33.0231" stroke="white" stroke-width="2" stroke-miterlimit="10" stroke-linecap="round" stroke-linejoin="round"/>
<path d="M71.493 30.0779H53.2529V38.3747L57.9005 43.0437H76.0689L78.5439 40.553" stroke="white" stroke-width="2" stroke-miterlimit="10" stroke-linecap="round" stroke-linejoin="round"/>
<path d="M53.4436 30.0779H39.8511L34.0576 38.7191L38.355 43.0437H48.5892L53.2526 38.3747" stroke="white" stroke-width="2" stroke-miterlimit="10" stroke-linecap="round" stroke-linejoin="round"/>
<path d="M96.6883 48.938H90.4014L92.0726 53.5989H96.7599" stroke="white" stroke-width="2" stroke-miterlimit="10" stroke-linecap="round" stroke-linejoin="round"/>
<path d="M24.6594 46.5594H30.9384L27.0389 41.8984L24.54 41.9785" stroke="white" stroke-width="2" stroke-miterlimit="10" stroke-linecap="round" stroke-linejoin="round"/>
<path d="M76.2837 131.556L9.39023 132.357C4.86206 132.357 1.19336 128.665 1.19336 124.108V9.44994C1.19336 4.8931 4.86206 1.20117 9.39023 1.20117H116.212C120.74 1.20117 124.409 4.8931 124.409 9.44994V84.5479" stroke="white" stroke-width="2" stroke-miterlimit="10" stroke-linecap="round" stroke-linejoin="round"/>
<path d="M24.874 86.7058H68.2379" stroke="white" stroke-width="2" stroke-miterlimit="10" stroke-linecap="round" stroke-linejoin="round"/>
<path d="M24.8418 94.7144H68.2056" stroke="white" stroke-width="2" stroke-miterlimit="10" stroke-linecap="round" stroke-linejoin="round"/>
<path d="M24.8418 102.723H55.6318" stroke="white" stroke-width="2" stroke-miterlimit="10" stroke-linecap="round" stroke-linejoin="round"/>
<path d="M125.993 119.583C130.33 109.797 128.157 98.745 120.183 90.7205C109.846 80.3174 93.0857 80.3174 82.7561 90.7205C72.4264 101.124 72.4185 117.989 82.7561 128.385C90.6744 136.353 102.365 138.219 112.042 133.974C112.042 133.974 117.469 131.556 120.43 128.032C123.398 124.516 125.993 119.583 125.993 119.583Z" stroke="white" stroke-width="2" stroke-miterlimit="10" stroke-linecap="round" stroke-linejoin="round"/>
<path d="M118.734 130.579L129.884 141.799L133.465 141.366L134.213 137.306L123.064 126.086" stroke="white" stroke-width="2" stroke-miterlimit="10" stroke-linecap="round" stroke-linejoin="round"/>
<path d="M104.466 90.3201C98.5771 89.4071 92.3539 91.233 87.8257 95.7899C84.6424 98.9933 82.8041 103.03 82.3027 107.194" stroke="white" stroke-width="2" stroke-miterlimit="10" stroke-linecap="round" stroke-linejoin="round"/>
<path d="M124.306 16.5938L144.456 23.9616L124.306 78.4355" stroke="white" stroke-width="2" stroke-miterlimit="10" stroke-linecap="round" stroke-linejoin="round"/>
<path d="M124.306 83.1845L147.806 35.0853L141.567 31.7778" stroke="white" stroke-width="2" stroke-miterlimit="10" stroke-linecap="round" stroke-linejoin="round"/>
</svg>

<svg width="149" height="143" fill="none" xmlns="http://www.w3.org/2000/svg"><path d="M42.223 72.988c5.08 0 9.2-4.145 9.2-9.258 0-5.113-4.12-9.258-9.2-9.258-5.08 0-9.2 4.145-9.2 9.258 0 5.113 4.12 9.258 9.2 9.258zm39.082 0c5.116 0 9.263-4.174 9.263-9.322 0-5.149-4.147-9.322-9.263-9.322s-9.263 4.173-9.263 9.322c0 5.148 4.147 9.322 9.263 9.322zm-9.264-9.194H51.415" stroke="#fff" stroke-width="2" stroke-miterlimit="10" stroke-linecap="round" stroke-linejoin="round"/><path d="M90.87 63.794l7.14-2.94-.82-13.662c-.263-5.83-18.638-6.631-18.638-6.631L71.5 30.086c-2.857-3.692-7.648-3.564-7.648-3.564h-28.3l-11.475 13.07 1.297 24.202h7.648" stroke="#fff" stroke-width="2" stroke-miterlimit="10" stroke-linecap="round" stroke-linejoin="round"/><path d="M71.493 30.078h-18.24v8.297l4.648 4.669h18.168l2.475-2.491" stroke="#fff" stroke-width="2" stroke-miterlimit="10" stroke-linecap="round" stroke-linejoin="round"/><path d="M53.444 30.078H39.85l-5.793 8.641 4.297 4.325h10.234l4.664-4.67m43.436 10.564h-6.287l1.672 4.66h4.687m-72.1-7.038h6.278l-3.9-4.662-2.498.08" stroke="#fff" stroke-width="2" stroke-miterlimit="10" stroke-linecap="round" stroke-linejoin="round"/><path d="M76.284 131.556l-66.894.801c-4.528 0-8.197-3.692-8.197-8.249V9.45c0-4.557 3.67-8.249 8.197-8.249h106.822c4.528 0 8.197 3.692 8.197 8.249v75.098m-99.535 2.158h43.364m-43.396 8.008h43.364m-43.364 8.009h30.79" stroke="#fff" stroke-width="2" stroke-miterlimit="10" stroke-linecap="round" stroke-linejoin="round"/><path d="M125.993 119.583c4.337-9.786 2.164-20.838-5.81-28.862-10.337-10.404-27.097-10.404-37.427 0-10.33 10.403-10.338 27.268 0 37.664 7.918 7.968 19.609 9.834 29.286 5.589 0 0 5.427-2.418 8.388-5.942 2.968-3.516 5.563-8.449 5.563-8.449zm-7.259 10.996l11.15 11.22 3.581-.433.748-4.06-11.149-11.22" stroke="#fff" stroke-width="2" stroke-miterlimit="10" stroke-linecap="round" stroke-linejoin="round"/><path d="M104.466 90.32a19.243 19.243 0 00-16.64 5.47 19.42 19.42 0 00-5.523 11.404m42.003-90.6l20.15 7.368-20.15 54.474m0 4.748l23.5-48.099-6.239-3.307" stroke="#fff" stroke-width="2" stroke-miterlimit="10" stroke-linecap="round" stroke-linejoin="round"/></svg>
